X:523
T:L'Homme Arme
Z:Jack Campin, http://www.campin.me.uk/
F:Jack Campin's Nine-Note Tunebook
% last edit 03-02-2013
M:3/2
L:1/2
Q:3/2=60
K:CDor
C2C|F2F|ED2|C3 |GGC|zGG|GF2|ED2|C3 |
GGG|C3 |c2c|B2B|c2c|G3 |
c2c|B2B|c2A|G2c|d2c|BA2|G3 |z3 |
C2C|F2F|ED2|C3 |GGC|zGG|GF2|ED2|C3|]

